packages/tokens/icons/critical/size16Px.svg

<svg viewBox="0 0 16 16" fill="none" xmlns="http://www.w3.org/2000/svg" width="1em" height="1em"><path d="M10.3702 1.5C10.7941 1.5 11.1982 1.67934 11.4825 1.99367L14.1123 4.90048C14.3618 5.17627 14.5 5.53491 14.5 5.90681L14.5 9.88325C14.5 10.2406 14.3724 10.5862 14.1403 10.8578L11.4765 13.9746C11.1915 14.308 10.7749 14.5 10.3362 14.5L5.72775 14.5C5.29433 14.5 4.88209 14.3125 4.59722 13.9858L1.86947 10.8578L1.49263 11.1864L1.86947 10.8578C1.63125 10.5846 1.5 10.2344 1.5 9.87193L1.5 5.91833C1.5 5.54125 1.64203 5.17799 1.89779 4.90091L4.59164 1.98258C4.8756 1.67496 5.2752 1.5 5.69384 1.5L10.3702 1.5Z" stroke="currentColor" stroke-linecap="round"/><path d="M8 9L8 4.5" stroke="currentColor" stroke-linecap="round"/><rect x="8.25" y="11.75" width="0.5" height="0.5" rx="0.25" transform="rotate(-180 8.25 11.75)" stroke="currentColor" stroke-width="0.5"/></svg>

<svg xmlns="http://www.w3.org/2000/svg" fill="none" viewBox="0 0 16 16" width="1em" height="1em"><path stroke="currentColor" stroke-linecap="round" d="M10.37 1.5a1.5 1.5 0 0 1 1.113.494l2.63 2.906a1.5 1.5 0 0 1 .387 1.007v3.976a1.5 1.5 0 0 1-.36.975l-2.664 3.117a1.5 1.5 0 0 1-1.14.525H5.728a1.5 1.5 0 0 1-1.13-.514l-2.729-3.128-.376.328.376-.328a1.5 1.5 0 0 1-.369-.986V5.918c0-.377.142-.74.398-1.017l2.694-2.918A1.5 1.5 0 0 1 5.694 1.5h4.676ZM8 9V4.5"/><rect width=".5" height=".5" x="8.25" y="11.75" stroke="currentColor" stroke-width=".5" rx=".25" transform="rotate(-180 8.25 11.75)"/></svg>
